apps/scalable/avastgui.svg

<?xml version="1.0" encoding="UTF-8" standalone="no"?>
<svg
   xmlns:dc="http://purl.org/dc/elements/1.1/"
   xmlns:cc="http://creativecommons.org/ns#"
   xmlns:rdf="http://www.w3.org/1999/02/22-rdf-syntax-ns#"
   xmlns:svg="http://www.w3.org/2000/svg"
   xmlns="http://www.w3.org/2000/svg"
   xmlns:sodipodi="http://sodipodi.sourceforge.net/DTD/sodipodi-0.dtd"
   xmlns:inkscape="http://www.inkscape.org/namespaces/inkscape"
   height="48"
   width="48"
   version="1.1"
   id="svg6"
   sodipodi:docname="avastgui.svg"
   inkscape:version="1.0.2 (e86c870879, 2021-01-15)">
  <metadata
     id="metadata12">
    <rdf:RDF>
      <cc:Work
         rdf:about="">
        <dc:format>image/svg+xml</dc:format>
        <dc:type
           rdf:resource="http://purl.org/dc/dcmitype/StillImage" />
        <dc:title></dc:title>
      </cc:Work>
    </rdf:RDF>
  </metadata>
  <defs
     id="defs10">
    <linearGradient
       gradientUnits="userSpaceOnUse"
       gradientTransform="matrix(0.0920001,0,0,0.09064843,-21.193131,1.5846311)"
       y2="269.48999"
       y1="235.14999"
       x2="657.65002"
       x1="319.20999"
       id="a-12">
      <stop
         id="stop1076"
         offset="0"
         stop-color="#e54c18" />
      <stop
         id="stop1078"
         offset="1"
         stop-color="#fec350" />
    </linearGradient>
  </defs>
  <sodipodi:namedview
     pagecolor="#ffffff"
     bordercolor="#666666"
     borderopacity="1"
     objecttolerance="10"
     gridtolerance="10"
     guidetolerance="10"
     inkscape:pageopacity="0"
     inkscape:pageshadow="2"
     inkscape:window-width="1920"
     inkscape:window-height="1031"
     id="namedview8"
     showgrid="true"
     inkscape:zoom="13.110938"
     inkscape:cx="45.355498"
     inkscape:cy="38.174144"
     inkscape:window-x="0"
     inkscape:window-y="24"
     inkscape:window-maximized="1"
     inkscape:current-layer="svg6"
     inkscape:document-rotation="0">
    <inkscape:grid
       type="xygrid"
       id="grid837" />
  </sodipodi:namedview>
  <circle
     cx="23.940615"
     cy="31.534513"
     fill="#5e81ac"
     opacity=".99"
     r="13.232998"
     transform="matrix(1.75830584759 0 0 1.75830608345 -18.15909274367 -30.97874795549)"
     id="circle2"
     style="fill:#ffc490;fill-opacity:1" />
  <ellipse
     cx="23.935829"
     cy="24.468578"
     fill="#5e81ac"
     opacity="0.99"
     id="circle846"
     style="fill:#ffffff;fill-opacity:0.31997341;stroke-width:1.534"
     rx="20.299435"
     ry="20.299437" />
  <path
     style="fill:#ffffff;fill-opacity:1;fill-rule:evenodd;stroke:none;stroke-width:1.79433;stroke-linecap:round;stroke-linejoin:round;stroke-miterlimit:4;stroke-dasharray:none;stroke-dashoffset:0;stroke-opacity:1"
     d="m 10.24209,33.593933 c -1.90367,0 -3.4469,-1.543229 -3.4469,-3.446902 0,-1.086683 0.50286,-2.055916 1.28859,-2.687688 2.64398,-1.840107 4.31113,-3.388765 5.125,-5.497568 0.87166,-2.258577 0.81134,-3.449058 -0.16226,-8.035162 -0.27592,-1.512927 0.93939,-2.574948 2.268364,-2.574948 0.480413,0 0.927943,0.140789 1.303587,0.383343 3.697587,3.008398 7.425658,3.090312 11.204879,-1.738097 0.886539,-1.028877 2.199096,-1.680252 3.663787,-1.680252 2.669928,0 4.834334,2.164403 4.834334,4.834332 0,1.40211 -0.596901,2.664803 -1.550456,3.547836 -3.772919,3.259442 -4.338625,5.029226 -3.483172,7.813953 0.419737,1.366362 1.661566,2.596333 3.668009,3.741108 1.603285,1.024204 2.666336,2.819516 2.666336,4.863116 0,3.184757 -2.581754,5.766513 -5.766511,5.766513 -1.45554,0 -2.785124,-0.539275 -3.799853,-1.428922 C 23.986301,34.013147 21.87423,30.729974 10.24209,33.593933 Z"
     id="circle2018"
     inkscape:connector-curvature="0"
     sodipodi:nodetypes="cscscsccsscscsscc" />
  <path
     style="fill:#ffc490;fill-opacity:0.99215686;fill-rule:evenodd;stroke:none;stroke-width:1.11721;stroke-linecap:round;stroke-linejoin:round;stroke-miterlimit:4;stroke-dasharray:none;stroke-dashoffset:0;stroke-opacity:1"
     d="M 26.101585,17.500665 C 25.491471,17.500665 25,17.992137 25,18.602252 v 0.770902 A 4.5160762,5.1499112 0 0 0 21.545498,17.532555 4.5160762,5.1499112 0 0 0 17.02962,22.682764 4.5160762,5.1499112 0 0 0 21.545498,27.832279 4.5160762,5.1499112 0 0 0 25,26 v 0.842307 c 0,0.610115 0.491471,1.100893 1.101585,1.100893 0.610114,0 1.100893,-0.490778 1.100893,-1.100893 v -8.240055 c 0,-0.610115 -0.490779,-1.101587 -1.100893,-1.101587 z m -3.921757,1.965385 a 2.8839503,3.1691763 0 0 1 2.883951,3.168879 2.8839503,3.1691763 0 0 1 -2.883951,3.169572 2.8839503,3.1691763 0 0 1 -2.883949,-3.169572 2.8839503,3.1691763 0 0 1 2.883949,-3.168879 z"
     id="path1918"
     inkscape:connector-curvature="0" />
</svg>

<?xml version="1.0" encoding="UTF-8" standalone="no"?>
<svg
   height="48"
   width="48"
   version="1.1"
   id="svg6"
   sodipodi:docname="avastgui.svg"
   inkscape:version="1.1.2 (0a00cf5339, 2022-02-04)"
   xmlns:inkscape="http://www.inkscape.org/namespaces/inkscape"
   xmlns:sodipodi="http://sodipodi.sourceforge.net/DTD/sodipodi-0.dtd"
   xmlns="http://www.w3.org/2000/svg"
   xmlns:svg="http://www.w3.org/2000/svg"
   xmlns:rdf="http://www.w3.org/1999/02/22-rdf-syntax-ns#"
   xmlns:cc="http://creativecommons.org/ns#"
   xmlns:dc="http://purl.org/dc/elements/1.1/">
  <metadata
     id="metadata12">
    <rdf:RDF>
      <cc:Work
         rdf:about="">
        <dc:format>image/svg+xml</dc:format>
        <dc:type
           rdf:resource="http://purl.org/dc/dcmitype/StillImage" />
        <dc:title />
      </cc:Work>
    </rdf:RDF>
  </metadata>
  <defs
     id="defs10">
    <linearGradient
       gradientUnits="userSpaceOnUse"
       gradientTransform="matrix(0.0920001,0,0,0.09064843,-21.193131,1.5846311)"
       y2="269.48999"
       y1="235.14999"
       x2="657.65002"
       x1="319.20999"
       id="a-12">
      <stop
         id="stop1076"
         offset="0"
         stop-color="#e54c18" />
      <stop
         id="stop1078"
         offset="1"
         stop-color="#fec350" />
    </linearGradient>
  </defs>
  <sodipodi:namedview
     pagecolor="#ffffff"
     bordercolor="#666666"
     borderopacity="1"
     objecttolerance="10"
     gridtolerance="10"
     guidetolerance="10"
     inkscape:pageopacity="0"
     inkscape:pageshadow="2"
     inkscape:window-width="1920"
     inkscape:window-height="1029"
     id="namedview8"
     showgrid="true"
     inkscape:zoom="13.110938"
     inkscape:cx="31.004647"
     inkscape:cy="38.174233"
     inkscape:window-x="0"
     inkscape:window-y="0"
     inkscape:window-maximized="1"
     inkscape:current-layer="svg6"
     inkscape:document-rotation="0"
     inkscape:pagecheckerboard="0">
    <inkscape:grid
       type="xygrid"
       id="grid837" />
  </sodipodi:namedview>
  <path
     id="circle2"
     style="opacity:0.99;fill:#d08770;fill-opacity:1"
     transform="matrix(1.75830584759 0 0 1.75830608345 -18.15909274367 -30.97874795549)"
     d="M 37.173613,31.534513 A 13.232998,13.232998 0 0 1 23.940615,44.767511 13.232998,13.232998 0 0 1 10.707617,31.534513 13.232998,13.232998 0 0 1 23.940615,18.301516 13.232998,13.232998 0 0 1 37.173613,31.534513 Z" />
  <path
     id="circle846"
     style="opacity:0.99;fill:#ffffff;fill-opacity:0.319973;stroke-width:1.534"
     d="M 44.235264,24.468578 A 20.299435,20.299437 0 0 1 23.935829,44.768015 20.299435,20.299437 0 0 1 3.6363945,24.468578 20.299435,20.299437 0 0 1 23.935829,4.1691418 20.299435,20.299437 0 0 1 44.235264,24.468578 Z" />
  <path
     style="fill:#ffffff;fill-opacity:1;fill-rule:evenodd;stroke:none;stroke-width:1.79433;stroke-linecap:round;stroke-linejoin:round;stroke-miterlimit:4;stroke-dasharray:none;stroke-dashoffset:0;stroke-opacity:1"
     d="m 10.24209,33.593933 c -1.90367,0 -3.4469,-1.543229 -3.4469,-3.446902 0,-1.086683 0.50286,-2.055916 1.28859,-2.687688 2.64398,-1.840107 4.31113,-3.388765 5.125,-5.497568 0.87166,-2.258577 0.81134,-3.449058 -0.16226,-8.035162 -0.27592,-1.512927 0.93939,-2.574948 2.268364,-2.574948 0.480413,0 0.927943,0.140789 1.303587,0.383343 3.697587,3.008398 7.425658,3.090312 11.204879,-1.738097 0.886539,-1.028877 2.199096,-1.680252 3.663787,-1.680252 2.669928,0 4.834334,2.164403 4.834334,4.834332 0,1.40211 -0.596901,2.664803 -1.550456,3.547836 -3.772919,3.259442 -4.338625,5.029226 -3.483172,7.813953 0.419737,1.366362 1.661566,2.596333 3.668009,3.741108 1.603285,1.024204 2.666336,2.819516 2.666336,4.863116 0,3.184757 -2.581754,5.766513 -5.766511,5.766513 -1.45554,0 -2.785124,-0.539275 -3.799853,-1.428922 C 23.986301,34.013147 21.87423,30.729974 10.24209,33.593933 Z"
     id="circle2018"
     inkscape:connector-curvature="0"
     sodipodi:nodetypes="cscscsccsscscsscc" />
  <path
     id="path1918"
     style="fill:#d08770;fill-opacity:0.99215686;fill-rule:evenodd;stroke:none;stroke-width:1.11721;stroke-linecap:round;stroke-linejoin:round;stroke-miterlimit:4;stroke-dasharray:none;stroke-dashoffset:0;stroke-opacity:1"
     d="M 26.101562 17.5 C 25.491449 17.5 25 17.991448 25 18.601562 L 25 19.373047 A 4.5160762 5.1499112 0 0 0 21.544922 17.533203 A 4.5160762 5.1499112 0 0 0 17.029297 22.683594 A 4.5160762 5.1499112 0 0 0 21.544922 27.832031 A 4.5160762 5.1499112 0 0 0 25 26 L 25 26.841797 C 25 27.451912 25.491449 27.943359 26.101562 27.943359 C 26.711676 27.943359 27.203125 27.451912 27.203125 26.841797 L 27.203125 18.601562 C 27.203125 17.991447 26.711676 17.5 26.101562 17.5 z M 22.179688 19.466797 A 2.8839503 3.1691763 0 0 1 25.064453 22.634766 A 2.8839503 3.1691763 0 0 1 22.179688 25.804688 A 2.8839503 3.1691763 0 0 1 19.294922 22.634766 A 2.8839503 3.1691763 0 0 1 22.179688 19.466797 z " />
</svg>
